icons/honor-of-kings-line.svg

<svg xmlns="http://www.w3.org/2000/svg" width="24" height="24" fill="none"><g clip-path="url(#a)"><g><path fill="#121212" d="M18.328 4.25595L16.905 5.67895C13.767 3.23695 9.22797 3.45895 6.34297 6.34295C3.96897 8.71695 3.39897 12.211 4.63297 15.123L7.04997 12.706C6.83697 11.203 7.30797 9.62095 8.46397 8.46395C10.174 6.75395 12.816 6.54195 14.757 7.82795L13.293 9.29195C12.178 8.75995 10.803 8.95495 9.87897 9.87895C8.95497 10.802 8.75897 12.178 9.29197 13.293L2.84197 19.743C2.80797 16.243 2.25097 14.931 2.05397 13.041C1.75297 10.147 2.71097 7.14695 4.92897 4.92895C8.59497 1.26295 14.4 1.03895 18.329 4.25595H18.328ZM21.158 4.25795C21.192 7.75795 21.749 9.06895 21.946 10.959C22.247 13.853 21.289 16.8529 19.071 19.0709C15.405 22.7369 9.59997 22.9609 5.67097 19.7439L7.09497 18.3209C10.233 20.7629 14.772 20.541 17.657 17.6569C20.031 15.2829 20.601 11.7889 19.367 8.87695L16.95 11.294C17.163 12.797 16.692 14.379 15.536 15.536C13.826 17.246 11.184 17.458 9.24297 16.172L10.707 14.708C11.822 15.24 13.197 15.045 14.121 14.121C15.045 13.198 15.241 11.8219 14.708 10.707L21.158 4.25695V4.25795Z"/></g></g><defs><clipPath id="a"><rect width="24" height="24" fill="white"/></clipPath></defs></svg>

<svg width="24" height="24" fill="none" xmlns="http://www.w3.org/2000/svg"><g clip-path="url(#a)"><path d="m18.328 4.256-1.423 1.423a8.002 8.002 0 0 0-12.272 9.444l2.417-2.417a5.002 5.002 0 0 1 7.707-4.878l-1.464 1.464a3 3 0 0 0-4.001 4.001l-6.45 6.45c-.034-3.5-.591-4.812-.788-6.702a9.98 9.98 0 0 1 2.875-8.112c3.666-3.666 9.471-3.89 13.4-.673h-.001Zm2.83.002c.034 3.5.591 4.81.788 6.701a9.98 9.98 0 0 1-2.875 8.112c-3.666 3.666-9.471 3.89-13.4.673l1.424-1.423a8.002 8.002 0 0 0 12.272-9.444l-2.417 2.417a5.002 5.002 0 0 1-7.707 4.878l1.464-1.464a3 3 0 0 0 4.001-4.001l6.45-6.45v.001Z" /></g><defs><clipPath id="a"><path fill="#fff" d="M0 0h24v24H0z"/></clipPath></defs></svg>
